X:1
T:School Of Velocity
T:Carl Czerny , Op. 299
T:3.
%%score { 1 | 2 }
L:1/8
M:4/4
K:C
V:1 treble nm="Piano"
V:2 bass 
V:1
 C/E/G/c/ E/G/c/e/ G/c/e/g/ c/e/g/c'/ |!8va(! e/g/c'/e'/ g/c'/e'/g'/ g/d'/f'/g'/ g/c'/e'/g'/ | %2
 g/b/d'/g'/ b/d'/g'/b'/ c'/d'/^f'/a'/ d'/f'/a'/d''/ | b'/g'/d''/b'/ g'/d'/b/d'/ g!8va)! z z2 | %4
 D/F/A/d/ F/A/d/f/ A/d/f/a/ d/f/a/d'/ |!8va(! f/a/d'/f'/ a/d'/f'/a'/ a/e'/g'/a'/ a/d'/f'/a'/ | %6
 b/d'/g'/b'/ d'/g'/b'/d''/ g'/b'/d''/f''/ d'/f'/g'/b'/ | e'/g'/c''/g'/ e'/c'/g/e/ c!8va)! z z2 | %8
 [ce] z z4 [c'e'] z |!8va(! g'/d'/b/g/ d'/b/g/d/!8va)! b/g/d/B/ g/d/B/G/ | [Ac] z z4 [ac'] z | %11
 e'/b/g/e/ b/g/e/B/ g/e/B/G/ e/B/G/E/ | [FA] z z4 [fa] z | c'/g/e/c/ g/e/c/G/ e/c/G/E/ c/G/E/C/ | %14
 z/ F/A/d/ f/d/A/F/ z/ ^F/A/d/ ^f/d/A/F/ | z/ G/B/d/ g/d/B/G/ z/ =F/B/d/ =f/d/B/F/ | %16
 z/ (E/G/c/ e/c/G/E/ e/c/G/E/ e/c/G/E/) | e/c/G/E/ e/c/G/E/ e/c/A/E/ e/c/A/E/ | %18
 d/A/F/D/ d/A/F/D/ c/A/^F/_E/ c/A/F/E/ | c/G/=E/C/ c/G/E/C/ B/G/=F/D/ B/G/F/D/ | %20
 c/C/E/G/ c/E/G/c/ e/G/c/e/ g/c/e/g/ | c'/c/e/g/ c'/e/g/c'/!8va(! e'/g/c'/e'/ g'/c'/e'/g'/ | %22
 c''!8va)! z z2 [EGce]2 z2 | [CEGc]2 z2 z4 |] %24
V:2
 [C,E,G,]2 z2 z4 | z2[K:treble] c z B z c z | d z z2 [D^FAc] z z2 | [GB] z z2 z4 | %4
[K:bass] [D,F,A,] z z2 z4 | z2[K:] d z ^c z d z | [GBdf] z z4 [GBdf] z | [ce] z z2 z4 | %8
[K:bass] C,/E,/G,/C/ E,/G,/C/E/[K:] G,/C/E/G/ C/E/G/c/ | B z z2 z4 | %10
[K:bass] A,,/C,/E,/A,/ C,/E,/A,/C/ E,/A,/C/E/[K:] A,/C/E/A/ | G z z2 z4 | %12
[K:bass] F,,/A,,/C,/F,/ A,,/C,/F,/A,/ C,/F,/A,/C/ F,/A,/C/F/ | E z z2 z4 | D,4 C,4 | B,,4 G,,4 | %16
 (C,2 C,,2 E,,2 G,,2) | (C,2 E,2 A,,2 C,2) | (F,,2 A,,2 ^F,,2 A,,2) | (G,,2 ^F,,2 G,,2 G,,,2) | %20
 C,, z z2 z4 | z2 (C2 G,2 E,2 | C,) z z2 [C,C]2 z2 | [C,,C,]2 z2 z4 |] %24

